X: 11
T:Liverpool Hornpipe
M:2/2
R:Hornpipe
N:Posted to tradtunes 15/04/2001
Z:Steve Mansfield April 2001
K:D
AG | FDFA d2 ef | g2 ge dcBA | GBGB FAFA | EDEF EAGF |
EDFA dfaf | gfed dcBA | dfaf bgec | d2 f2 d2 :|
|: (3ABc | dfdf cece | BABc dcBA | GBGB FAFA | EDEF EAGF |
EDFA dfaf | gfed dcBA | dfaf bgec | d2 f2 d2 :|
<end>
<start>
